img/union-10.svg

<svg fill="none" height="170" viewBox="0 0 197 170" width="197" xmlns="http://www.w3.org/2000/svg"><path d="m98.2907 196.047v.809zm97.1433 0v.809h.809v-.809zm-193.47661-97.143c.00001-53.2035 43.12991-96.33335 96.33331-96.33335v-1.619044c-54.0976-.000005-97.952354 43.854794-97.952358 97.952394zm96.33331 96.333c-53.2034 0-96.33331-43.13-96.33331-96.333h-1.619048c-.000005 54.098 43.854758 97.952 97.952358 97.952zm97.1433 0h-97.1433v1.619h97.1433zm-.81-96.333v97.143h1.619v-97.143zm-96.3333-96.33335c53.2033.00001 96.3333 43.12995 96.3333 96.33335h1.619c0-54.0976-43.855-97.952389-97.9523-97.952394z" fill="#fff"/></svg>

<svg width="197" height="170" viewBox="0 0 197 170" fill="none" xmlns="http://www.w3.org/2000/svg">
<path d="M98.2907 196.047L98.2907 196.856L98.2907 196.047ZM195.434 196.047L195.434 196.856L196.243 196.856L196.243 196.047L195.434 196.047ZM1.95739 98.904C1.9574 45.7005 45.0873 2.57065 98.2907 2.57065L98.2907 0.951606C44.1931 0.951601 0.338346 44.8064 0.338342 98.904L1.95739 98.904ZM98.2907 195.237C45.0873 195.237 1.95739 152.107 1.95739 98.904L0.338342 98.904C0.338337 153.002 44.1931 196.856 98.2907 196.856L98.2907 195.237ZM195.434 195.237L98.2907 195.237L98.2907 196.856L195.434 196.856L195.434 195.237ZM194.624 98.904L194.624 196.047L196.243 196.047L196.243 98.904L194.624 98.904ZM98.2907 2.57065C151.494 2.57066 194.624 45.7006 194.624 98.904L196.243 98.904C196.243 44.8064 152.388 0.951611 98.2907 0.951606L98.2907 2.57065Z" fill="white"/>
</svg>
